app/filters/OXFORD.cube
LUT_3D_SIZE 16
0.045903 0.070853 0.077012
0.054504 0.070966 0.077126
0.066765 0.071148 0.077293
0.086063 0.071413 0.077544
0.120359 0.071899 0.078009
0.167525 0.072539 0.078617
0.225504 0.073294 0.079334
0.291421 0.073037 0.079087
0.362535 0.071581 0.077703
0.436257 0.069412 0.075642
0.510974 0.066399 0.072759
0.584281 0.062459 0.068964
0.653812 0.057541 0.064179
0.719228 0.051492 0.058227
0.777910 0.044248 0.050982
0.829622 0.035378 0.041911
0.045620 0.082957 0.076687
0.050143 0.083475 0.073443
0.068428 0.076405 0.075725
0.086240 0.074460 0.077725
0.121192 0.073805 0.078118
0.170102 0.073960 0.078724
0.230153 0.074656 0.079458
0.297167 0.074402 0.079071
0.369211 0.073069 0.077611
0.444245 0.071015 0.075442
0.520215 0.068092 0.072383
0.594815 0.064216 0.068359
0.665231 0.059359 0.063302
0.729454 0.053551 0.057165
0.787655 0.046613 0.049591
0.838848 0.038231 0.039904
0.045168 0.101392 0.076152
0.046354 0.101511 0.076092
0.055466 0.101981 0.069701
0.091837 0.094944 0.059212
0.126965 0.089198 0.075502
0.174420 0.089390 0.079190
0.235267 0.089837 0.080283
0.304035 0.088620 0.079711
0.377816 0.084597 0.077847
0.453506 0.079588 0.075378
0.529844 0.076205 0.072138
0.604847 0.073192 0.067922
0.675746 0.069261 0.062611
0.740011 0.064511 0.056146
0.797544 0.058978 0.048203
0.847693 0.052637 0.037889
0.044224 0.131634 0.075044
0.045038 0.131863 0.075276
0.049482 0.131912 0.073867
0.064977 0.132476 0.061420
0.123989 0.136463 0.005333
0.197116 0.129198 0.008166
0.253181 0.131824 0.066471
0.317829 0.133909 0.077191
0.389656 0.131536 0.078848
0.465593 0.126121 0.076399
0.542380 0.120451 0.072529
0.617297 0.113080 0.067760
0.687698 0.102470 0.061953
0.751147 0.085975 0.054997
0.808326 0.078665 0.046428
0.857806 0.073716 0.034832
0.042103 0.178382 0.072530
0.043018 0.178989 0.072900
0.045914 0.179098 0.072205
0.055846 0.179121 0.068575
0.094294 0.180665 0.000000
0.171891 0.195706 0.008776
0.282126 0.188790 0.012165
0.351916 0.192440 0.013466
0.418341 0.197541 0.013983
0.488382 0.199473 0.013289
0.561510 0.198159 0.057796
0.634247 0.192652 0.063572
0.703369 0.182496 0.059938
0.766341 0.165173 0.051991
0.821781 0.152559 0.041553
0.870237 0.140026 0.023483
0.037870 0.238980 0.067379
0.039014 0.239842 0.067930
0.041711 0.239872 0.067666
0.049736 0.239971 0.065381
0.081763 0.241921 0.041888
0.142841 0.244581 0.000000
0.239103 0.266105 0.011350
0.373022 0.264956 0.016100
0.460244 0.265453 0.017905
0.530276 0.270399 0.019167
0.598875 0.275217 0.019777
0.665692 0.276508 0.019124
0.729650 0.273877 0.018117
0.788034 0.266640 0.016990
0.840045 0.254842 0.015839
0.885949 0.238957 0.014727
0.030101 0.309199 0.057444
0.031616 0.310531 0.058288
0.035043 0.311151 0.057972
0.043766 0.311698 0.055306
0.069342 0.313153 0.037437
0.132130 0.316235 0.000000
0.207485 0.320945 0.000344
0.321713 0.347085 0.014462
0.461393 0.351195 0.020259
0.568935 0.346640 0.022595
0.644776 0.348070 0.024051
0.710571 0.350761 0.025131
0.770377 0.351764 0.025588
0.822940 0.348373 0.024747
0.869248 0.341145 0.023395
0.909822 0.330642 0.021888
0.014961 0.386718 0.035352
0.017583 0.388359 0.037332
0.022773 0.389170 0.036775
0.032458 0.389921 0.032644
0.049992 0.391210 0.000000
0.124534 0.395183 0.000000
0.202378 0.398727 0.000000
0.280750 0.404530 0.000640
0.409489 0.434056 0.017635
0.544772 0.440927 0.024299
0.670424 0.432820 0.027287
0.753031 0.428089 0.028875
0.815333 0.424855 0.029831
0.866448 0.421531 0.030438
0.908864 0.415864 0.030517
0.941565 0.406922 0.029454
0.000000 0.468016 0.000000
0.000000 0.469660 0.000000
0.000000 0.470626 0.000000
0.011318 0.471093 0.000000
0.028266 0.471560 0.000000
0.113073 0.477829 0.000000
0.198660 0.481948 0.000000
0.275570 0.485375 0.000000
0.361289 0.490318 0.001719
0.490005 0.520438 0.019770
0.626255 0.531484 0.028181
0.757111 0.520569 0.031698
0.848449 0.507254 0.033376
0.907600 0.497115 0.034205
0.946752 0.487143 0.034550
0.972808 0.476983 0.034596
0.000000 0.549770 0.000000
0.000000 0.550929 0.000000
0.000000 0.552670 0.000000
0.000000 0.554115 0.000000
0.000000 0.555018 0.000000
0.092453 0.560654 0.000000
0.185861 0.565069 0.000000
0.273241 0.568634 0.000000
0.346218 0.572705 0.000000
0.440300 0.576885 0.002602
0.566025 0.604387 0.021074
0.699591 0.618533 0.031559
0.826921 0.604277 0.035508
0.921775 0.583580 0.037293
0.970531 0.565576 0.038028
0.993435 0.549492 0.038196
0.000000 0.628888 0.000000
0.000000 0.630982 0.000000
0.000000 0.633217 0.000000
0.000000 0.634828 0.000000
0.000000 0.635793 0.000000
0.044511 0.639759 0.000000
0.154133 0.643926 0.000000
0.258872 0.647881 0.000000
0.340062 0.651200 0.000000
0.413337 0.654380 0.000000
0.507312 0.659717 0.002521
0.628353 0.681379 0.020367
0.749756 0.697330 0.033507
0.863422 0.683270 0.038090
0.954817 0.658535 0.040277
0.998126 0.632237 0.041181
0.000000 0.704252 0.000000
0.000000 0.706237 0.000000
0.000000 0.708448 0.000000
0.000000 0.710091 0.000000
0.000000 0.710745 0.000000
0.000000 0.711446 0.000000
0.107839 0.715659 0.000000
0.227534 0.720366 0.000000
0.320379 0.723522 0.000000
0.394352 0.725912 0.000000
0.465811 0.729410 0.000000
0.548329 0.733521 0.001054
0.659718 0.749429 0.014247
0.775531 0.766626 0.032698
0.878883 0.756163 0.039400
0.970701 0.727829 0.042476
0.000000 0.771219 0.000000
0.000000 0.773033 0.000000
0.000000 0.774712 0.000000
0.000000 0.776138 0.000000
0.000000 0.776723 0.000000
0.000000 0.777075 0.000000
0.043297 0.779659 0.000000
0.166007 0.783238 0.000000
0.278630 0.786286 0.000000
0.360044 0.788701 0.000000
0.433117 0.791430 0.000000
0.502573 0.794992 0.000000
0.579613 0.798354 0.000353
0.684397 0.810320 0.009191
0.797388 0.826699 0.028959
0.894459 0.819084 0.039827
0.000000 0.828596 0.000000
0.000000 0.830111 0.000000
0.000000 0.831669 0.000000
0.000000 0.832951 0.000000
0.000000 0.834011 0.000000
0.000000 0.833934 0.000000
0.000000 0.834889 0.000000
0.078697 0.836726 0.000000
0.211239 0.840137 0.000000
0.309591 0.842547 0.000000
0.391908 0.845037 0.000000
0.465604 0.847626 0.000000
0.533183 0.851314 0.000000
0.608386 0.854693 0.000000
0.703820 0.862348 0.005609
0.817073 0.877808 0.023717
0.000000 0.877176 0.000000
0.000000 0.878624 0.000000
0.000000 0.880001 0.000000
0.000000 0.881550 0.000000
0.000000 0.882486 0.000000
0.000000 0.882847 0.000000
0.000000 0.882838 0.000000
0.000000 0.883439 0.000000
0.102939 0.885330 0.000000
0.242647 0.888783 0.000000
0.340728 0.891322 0.000000
0.422878 0.893636 0.000000
0.495546 0.896004 0.000000
0.561215 0.899791 0.000000
0.634187 0.903050 0.000000
0.720118 0.907169 0.003240
0.000000 0.919325 0.000000
0.000000 0.920744 0.000000
0.000000 0.922202 0.000000
0.000000 0.923635 0.000000
0.000000 0.924788 0.000000
0.000000 0.925587 0.000000
0.000000 0.925733 0.000000
0.000000 0.925594 0.000000
0.000000 0.925115 0.000000
0.154955 0.928471 0.000000
0.274717 0.931264 0.000000
0.372025 0.933712 0.000000
0.452392 0.935716 0.000000
0.522123 0.938395 0.000000
0.586904 0.941860 0.000000
0.656605 0.945566 0.000000
0.043437 0.070718 0.098985
0.050873 0.070791 0.091259
0.065931 0.070736 0.085161
0.084873 0.070948 0.081782
0.118434 0.071599 0.080793
0.165203 0.072367 0.080509
0.222980 0.073070 0.080915
0.288486 0.072865 0.080980
0.359481 0.071419 0.079873
0.433409 0.069261 0.078054
0.508688 0.066223 0.075461
0.582888 0.062234 0.072038
0.653494 0.057239 0.067666
0.718715 0.051186 0.062327
0.777812 0.043903 0.055901
0.829535 0.034982 0.048179
0.040498 0.081337 0.093954
0.051194 0.083021 0.090758
0.065566 0.082176 0.089441
0.085449 0.081983 0.088603
0.120993 0.081401 0.087669
0.169823 0.080901 0.087005
0.229731 0.081135 0.087183
0.296984 0.081076 0.087160
0.368837 0.079791 0.086015
0.442920 0.077859 0.084284
0.517346 0.075202 0.081881
0.589947 0.071833 0.078746
0.659201 0.067710 0.074906
0.723463 0.062880 0.070369
0.781819 0.057379 0.065143
0.833535 0.051296 0.059322
0.045665 0.100248 0.081196
0.051745 0.100873 0.085498
0.060034 0.101541 0.083762
0.090575 0.098296 0.076012
0.126877 0.095438 0.085978
0.175912 0.095721 0.088262
0.237820 0.096079 0.089118
0.307146 0.095014 0.088902
0.380162 0.091305 0.087379
0.454323 0.086722 0.085371
0.528561 0.083646 0.082804
0.601272 0.080981 0.079592
0.670446 0.077624 0.075669
0.733982 0.073579 0.071065
0.791459 0.069022 0.065883
0.841906 0.064002 0.060161
0.044539 0.130372 0.077420
0.049891 0.132018 0.082513
0.055321 0.132928 0.083307
0.068781 0.133708 0.075162
0.128453 0.138391 0.016194
0.198898 0.132099 0.052527
0.257753 0.136618 0.079823
0.323544 0.138513 0.088077
0.395863 0.135877 0.088789
0.469737 0.130057 0.086459
0.543964 0.124133 0.083321
0.616385 0.116566 0.079596
0.684865 0.106072 0.075234
0.747538 0.092409 0.070288
0.803468 0.086237 0.064861
0.852856 0.082004 0.058913
0.042327 0.178118 0.074457
0.047829 0.180634 0.080077
0.052179 0.182081 0.081699
0.061256 0.182468 0.078999
0.101151 0.183928 0.000000
0.181890 0.200090 0.009512
0.292442 0.193795 0.012542
0.361379 0.197674 0.013821
0.428472 0.202284 0.014169
0.496798 0.203391 0.058622
0.566991 0.200624 0.074636
0.636927 0.193852 0.077892
0.703867 0.182466 0.074729
0.765024 0.165870 0.069167
0.819672 0.153605 0.063169
0.866999 0.141456 0.056684
0.038000 0.240435 0.069586
0.043728 0.243091 0.075509
0.048109 0.244543 0.077724
0.055893 0.245172 0.075910
0.090160 0.246805 0.054791
0.153746 0.250271 0.000000
0.255227 0.273399 0.012326
0.391401 0.270877 0.016685
0.475229 0.271655 0.018392
0.542861 0.275601 0.019564
0.607941 0.278873 0.019945
0.671375 0.278603 0.019142
0.732141 0.274579 0.018036
0.788980 0.266361 0.016849
0.839889 0.254013 0.037258
0.884580 0.237426 0.045641
0.029980 0.312545 0.060203
0.036276 0.315343 0.066954
0.041499 0.316984 0.069610
0.050220 0.317896 0.067457
0.080432 0.319374 0.050231
0.145053 0.322723 0.000000
0.223365 0.329150 0.000631
0.345434 0.357533 0.015964
0.486968 0.358482 0.021087
0.587201 0.353497 0.023200
0.658040 0.353489 0.024478
0.719865 0.354508 0.025420
0.775938 0.353985 0.025697
0.826431 0.349793 0.024762
0.870738 0.341802 0.023342
0.910105 0.330618 0.021792
0.014267 0.391212 0.040420
0.022800 0.394139 0.050277
0.029834 0.396128 0.054121
0.039682 0.397201 0.051228
0.064272 0.398919 0.032866
0.140961 0.403616 0.000000
0.219623 0.407480 0.000000
0.304113 0.414618 0.001967
0.437784 0.447187 0.019581
0.571537 0.449414 0.025248
0.689532 0.439634 0.027915
0.765879 0.433607 0.029317
0.823692 0.429128 0.030152
0.872226 0.424380 0.030645
0.912692 0.417950 0.030645
0.943682 0.408512 0.029524
0.000000 0.472263 0.000000
0.000000 0.475419 0.000000
0.004963 0.477181 0.000000
0.019364 0.477933 0.000000
0.033337 0.479259 0.000000
0.126835 0.485872 0.000000
0.215376 0.490886 0.000000
0.291995 0.494577 0.000000
0.385002 0.500586 0.003386
0.514169 0.533043 0.021716
0.648012 0.539557 0.029032
0.772277 0.526375 0.032222
0.858044 0.511942 0.033731
0.913641 0.500694 0.034467
0.950302 0.490037 0.034742
0.974735 0.479480 0.034754
0.000000 0.553630 0.000000
0.000000 0.556285 0.000000
0.000000 0.558350 0.000000
0.000000 0.559558 0.000000
0.005511 0.560980 0.000000
0.106808 0.567480 0.000000
0.200742 0.572524 0.000000
0.285829 0.576613 0.000000
0.358491 0.580992 0.000000
0.456762 0.586287 0.003547
0.582798 0.614517 0.022520
0.711448 0.625892 0.032079
0.830902 0.610742 0.035765
0.922164 0.589699 0.037491
0.971116 0.570724 0.038221
0.993888 0.553543 0.038372
0.000000 0.632305 0.000000
0.000000 0.635316 0.000000
0.000000 0.638100 0.000000
0.000000 0.639753 0.000000
0.000000 0.640630 0.000000
0.060268 0.645299 0.000000
0.166782 0.649614 0.000000
0.267994 0.653607 0.000000
0.349149 0.657359 0.000000
0.420275 0.660725 0.000000
0.507671 0.665623 0.002043
0.621562 0.685196 0.018083
0.742088 0.703218 0.032893
0.856441 0.690673 0.037988
0.951765 0.664896 0.040348
0.997717 0.637174 0.041309
0.000000 0.705870 0.000000
0.000000 0.709577 0.000000
0.000000 0.712250 0.000000
0.000000 0.713837 0.000000
0.000000 0.714269 0.000000
0.000000 0.715496 0.000000
0.115784 0.719584 0.000000
0.233951 0.724752 0.000000
0.321492 0.728253 0.000000
0.393835 0.730718 0.000000
0.462962 0.733953 0.000000
0.542627 0.737892 0.000583
0.650321 0.752586 0.011916
0.767823 0.770474 0.031481
0.871517 0.761866 0.039131
0.967372 0.733399 0.042457
0.000000 0.771424 0.000000
0.000000 0.775222 0.000000
0.000000 0.777649 0.000000
0.000000 0.778961 0.000000
0.000000 0.779684 0.000000
0.000000 0.780006 0.000000
0.043662 0.782861 0.000000
0.163668 0.786485 0.000000
0.275725 0.789803 0.000000
0.357002 0.792481 0.000000
0.430179 0.795094 0.000000
0.499181 0.798369 0.000000
0.574908 0.801634 0.000000
0.676613 0.812453 0.007648
0.790738 0.829517 0.027246
0.888758 0.823312 0.039384
0.000000 0.828555 0.000000
0.000000 0.831147 0.000000
0.000000 0.833219 0.000000
0.000000 0.834586 0.000000
0.000000 0.835688 0.000000
0.000000 0.835886 0.000000
0.000000 0.836986 0.000000
0.075095 0.839134 0.000000
0.206360 0.842722 0.000000
0.306566 0.845158 0.000000
0.389626 0.847691 0.000000
0.463671 0.850348 0.000000
0.530978 0.854002 0.000000
0.605448 0.857067 0.000000
0.698547 0.864235 0.004767
0.811168 0.879037 0.022124
0.000000 0.877137 0.000000
0.000000 0.879058 0.000000
0.000000 0.880596 0.000000
0.000000 0.882068 0.000000
0.000000 0.882938 0.000000
0.000000 0.883619 0.000000
0.000000 0.884188 0.000000
0.000000 0.884863 0.000000
0.099563 0.887041 0.000000
0.240068 0.890533 0.000000
0.338743 0.893059 0.000000
0.421121 0.895360 0.000000
0.493975 0.898343 0.000000
0.559572 0.901519 0.000000
0.632036 0.904907 0.000000
0.716628 0.908414 0.002780
0.000000 0.919506 0.000000
0.000000 0.920437 0.000000
0.000000 0.921883 0.000000
0.000000 0.923129 0.000000
0.000000 0.924053 0.000000
0.000000 0.925075 0.000000
0.000000 0.925617 0.000000
0.000000 0.925949 0.000000
0.000000 0.925991 0.000000
0.152916 0.929612 0.000000
0.272378 0.932702 0.000000
0.370113 0.935116 0.000000
0.450425 0.937337 0.000000
0.520344 0.939851 0.000000
0.585108 0.943287 0.000000
0.654414 0.946996 0.000000
0.038926 0.069874 0.135500
0.043872 0.069162 0.134454
0.057654 0.070773 0.118115
0.083459 0.070726 0.113326
0.115414 0.070485 0.106199
0.161072 0.070322 0.104054
0.218842 0.071201 0.104115
0.285083 0.071782 0.103468
0.356567 0.071016 0.100001
0.431896 0.069263 0.092887
0.507572 0.066324 0.089299
0.581930 0.062319 0.086874
0.653301 0.057282 0.083203
0.718755 0.051200 0.077992
0.778055 0.043870 0.073034
0.830592 0.034848 0.067694
0.033226 0.076192 0.129384
0.043966 0.080873 0.131452
0.061308 0.081846 0.117985
0.083426 0.081383 0.114207
0.117301 0.079852 0.109308
0.165048 0.078778 0.107355
0.224898 0.079393 0.107154
0.292886 0.080214 0.106055
0.365789 0.079545 0.101828
0.440982 0.077933 0.096685
0.515725 0.075319 0.093711
0.589101 0.071895 0.091419
0.659180 0.067745 0.088181
0.723408 0.062903 0.084005
0.782225 0.057375 0.079767
0.833959 0.051271 0.075281
0.027683 0.099198 0.118546
0.036404 0.100922 0.118171
0.051702 0.102758 0.114750
0.081624 0.099833 0.113115
0.117608 0.098483 0.110874
0.168933 0.098175 0.109878
0.231598 0.098220 0.108732
0.301685 0.097454 0.106197
0.374719 0.093796 0.100097
0.449539 0.088131 0.095883
0.524228 0.084468 0.093005
0.596939 0.081511 0.090557
0.665903 0.077944 0.087552
0.729349 0.073901 0.084096
0.786883 0.069463 0.080201
0.837750 0.064747 0.076035
0.044179 0.129799 0.102984
0.050044 0.130780 0.105527
0.060371 0.131199 0.107658
0.075827 0.131647 0.107123
0.123458 0.134959 0.080474
0.187990 0.134228 0.093737
0.249527 0.138801 0.103073
0.318996 0.140896 0.102792
0.391253 0.137485 0.100028
0.465705 0.129731 0.096887
0.539992 0.123356 0.094056
0.612086 0.116380 0.091031
0.679838 0.106889 0.087601
0.741795 0.093091 0.083750
0.798051 0.086859 0.079744
0.847320 0.082785 0.075568
0.044534 0.175527 0.093630
0.049732 0.178040 0.096220
0.056428 0.180303 0.097880
0.067519 0.182086 0.096991
0.100530 0.184059 0.060644
0.175896 0.201114 0.009236
0.289334 0.195613 0.012590
0.358819 0.199278 0.013863
0.425419 0.203403 0.044825
0.494578 0.204000 0.080290
0.564950 0.200861 0.089698
0.634191 0.193481 0.091121
0.700134 0.181456 0.088020
0.760382 0.163233 0.083623
0.814373 0.150890 0.079239
0.862015 0.139548 0.074790
0.039639 0.237211 0.081529
0.044809 0.241648 0.083863
0.050261 0.245049 0.086171
0.058858 0.247496 0.087030
0.088964 0.249041 0.074245
0.152423 0.252073 0.000000
0.254003 0.275182 0.012237
0.391329 0.272682 0.016759
0.474210 0.272461 0.018419
0.542537 0.276447 0.019605
0.607884 0.279511 0.019888
0.670755 0.278621 0.019005
0.730466 0.273770 0.017826
0.786377 0.265240 0.056894
0.836808 0.252284 0.070417
0.881065 0.235604 0.071402
0.031537 0.311208 0.072290
0.037358 0.316223 0.077094
0.043245 0.319254 0.079567
0.052390 0.321138 0.080253
0.078568 0.322539 0.070074
0.143432 0.325502 0.000000
0.223175 0.331384 0.000532
0.346338 0.360023 0.015975
0.488526 0.360041 0.021188
0.589459 0.354934 0.023309
0.660351 0.354708 0.024572
0.721249 0.355345 0.025483
0.776393 0.354144 0.025645
0.825608 0.349267 0.024613
0.869213 0.340723 0.023141
0.908104 0.329205 0.021571
0.016288 0.392171 0.058967
0.023929 0.396863 0.064748
0.031200 0.399354 0.067812
0.041234 0.400345 0.068418
0.062881 0.401260 0.059444
0.139271 0.405540 0.000000
0.219624 0.409489 0.000000
0.303999 0.416868 0.001704
0.440211 0.449895 0.019692
0.576470 0.451804 0.025451
0.694277 0.441526 0.028092
0.769434 0.435001 0.029447
0.826303 0.429875 0.030223
0.873271 0.424690 0.030677
0.912509 0.417897 0.030592
0.943030 0.408072 0.029413
0.000000 0.474420 0.026445
0.000000 0.478474 0.040618
0.006921 0.480769 0.045515
0.021346 0.481507 0.046436
0.036936 0.481476 0.038993
0.128545 0.488096 0.000000
0.217862 0.493612 0.000000
0.295437 0.498008 0.000000
0.390006 0.504341 0.003568
0.520817 0.537333 0.022154
0.654409 0.543052 0.029308
0.777109 0.529135 0.032424
0.861996 0.513956 0.033889
0.916093 0.502412 0.034584
0.951360 0.491323 0.034820
0.974583 0.480289 0.034787
0.000000 0.556217 0.000000
0.000000 0.559621 0.000000
0.000000 0.561515 0.000000
0.000000 0.562412 0.000000
0.006149 0.563095 0.000000
0.108612 0.569836 0.000000
0.203729 0.575375 0.000000
0.289110 0.579886 0.000000
0.362113 0.584402 0.000000
0.461887 0.590248 0.003708
0.584195 0.617686 0.022337
0.708189 0.629929 0.031965
0.828017 0.614812 0.035788
0.920782 0.592964 0.037563
0.971146 0.572903 0.038294
0.993996 0.555356 0.038454
0.000000 0.635155 0.000000
0.000000 0.637962 0.000000
0.000000 0.640012 0.000000
0.000000 0.641956 0.000000
0.000000 0.642541 0.000000
0.064254 0.647577 0.000000
0.170437 0.652202 0.000000
0.270729 0.656533 0.000000
0.351541 0.660496 0.000000
0.420035 0.663916 0.000000
0.504521 0.668361 0.001575
0.616792 0.687352 0.016643
0.738367 0.706146 0.032554
0.852600 0.694257 0.037904
0.949867 0.668250 0.040388
0.997265 0.640065 0.041381
0.000000 0.708520 0.000000
0.000000 0.710735 0.000000
0.000000 0.712834 0.000000
0.000000 0.714943 0.000000
0.000000 0.715655 0.000000
0.000000 0.716942 0.000000
0.116103 0.721648 0.000000
0.235769 0.727010 0.000000
0.321455 0.730036 0.000000
0.392799 0.733335 0.000000
0.461267 0.736895 0.000000
0.539841 0.740461 0.000478
0.645723 0.754303 0.010789
0.764084 0.772476 0.030793
0.867977 0.764722 0.038971
0.965404 0.736323 0.042447
0.000000 0.773615 0.000000
0.000000 0.775602 0.000000
0.000000 0.777507 0.000000
0.000000 0.778996 0.000000
0.000000 0.780013 0.000000
0.000000 0.780639 0.000000
0.042305 0.783839 0.000000
0.163615 0.788233 0.000000
0.274552 0.791885 0.000000
0.355523 0.794252 0.000000
0.429109 0.796983 0.000000
0.498097 0.800298 0.000000
0.573182 0.804184 0.000000
0.672988 0.813762 0.006937
0.788263 0.830848 0.026479
0.887029 0.825376 0.039235
0.000000 0.829562 0.000000
0.000000 0.831129 0.000000
0.000000 0.832862 0.000000
0.000000 0.834286 0.000000
0.000000 0.835437 0.000000
0.000000 0.835919 0.000000
0.000000 0.837608 0.000000
0.073385 0.840084 0.000000
0.206441 0.844169 0.000000
0.305568 0.846988 0.000000
0.388530 0.849348 0.000000
0.462618 0.851935 0.000000
0.529756 0.855609 0.000000
0.603440 0.858924 0.000000
0.695132 0.865248 0.004246
0.807884 0.879799 0.021234
0.000000 0.877383 0.000000
0.000000 0.878607 0.000000
0.000000 0.880018 0.000000
0.000000 0.881228 0.000000
0.000000 0.882441 0.000000
0.000000 0.883391 0.000000
0.000000 0.883867 0.000000
0.000000 0.885203 0.000000
0.099175 0.887779 0.000000
0.239332 0.891572 0.000000
0.337680 0.894418 0.000000
0.419732 0.896758 0.000000
0.492692 0.899350 0.000000
0.558153 0.902848 0.000000
0.629761 0.906429 0.000000
0.713057 0.909290 0.002407
0.000000 0.919517 0.000000
0.000000 0.920351 0.000000
0.000000 0.921243 0.000000
0.000000 0.921940 0.000000
0.000000 0.923124 0.000000
0.000000 0.924164 0.000000
0.000000 0.924748 0.000000
0.000000 0.925344 0.000000
0.000000 0.925931 0.000000
0.153529 0.929835 0.000000
0.272776 0.933270 0.000000
0.369914 0.935635 0.000000
0.449354 0.938197 0.000000
0.519650 0.940538 0.000000
0.584024 0.944289 0.000000
0.652798 0.948069 0.000000
0.029681 0.065989 0.195697
0.031398 0.065600 0.197297
0.049081 0.064801 0.189528
0.075184 0.070741 0.163049
0.111496 0.070690 0.159338
0.158439 0.070383 0.157738
0.214777 0.069681 0.158820
0.278895 0.068481 0.160029
0.350443 0.067757 0.160866
0.426431 0.066893 0.159685
0.503736 0.064928 0.155552
0.579765 0.061690 0.148138
0.652273 0.057149 0.136881
0.718975 0.051295 0.117425
0.779107 0.043970 0.108412
0.831629 0.034843 0.101957
0.027424 0.069761 0.191656
0.034652 0.075606 0.193096
0.052139 0.075509 0.190727
0.077489 0.079102 0.167471
0.113236 0.079244 0.161101
0.161107 0.078464 0.159338
0.219610 0.077398 0.160301
0.285611 0.076271 0.160910
0.358907 0.076024 0.161488
0.435427 0.075479 0.159208
0.512119 0.073926 0.154221
0.586901 0.071276 0.146095
0.657994 0.067582 0.134495
0.723494 0.062954 0.118238
0.783127 0.057454 0.110643
0.834954 0.051238 0.104907
0.008072 0.101194 0.162905
0.014856 0.104206 0.166782
0.032260 0.103031 0.178718
0.075637 0.096153 0.178837
0.113083 0.098034 0.159786
0.162510 0.096426 0.158622
0.223225 0.094324 0.159267
0.291432 0.092182 0.159025
0.366382 0.090295 0.158576
0.443410 0.086082 0.154587
0.519956 0.083394 0.148165
0.594290 0.081101 0.138753
0.664485 0.077937 0.126271
0.729097 0.074071 0.112472
0.787166 0.069514 0.105995
0.838416 0.064729 0.101499
0.000000 0.137326 0.157958
0.000000 0.139502 0.158181
0.016829 0.140391 0.160081
0.042225 0.140812 0.156556
0.110308 0.129989 0.155270
0.162509 0.127814 0.153402
0.227291 0.125664 0.151494
0.301133 0.125292 0.149995
0.377796 0.122071 0.146292
0.454853 0.115311 0.140117
0.531307 0.110138 0.131619
0.604990 0.105047 0.119989
0.673929 0.098865 0.106467
0.737131 0.091030 0.099183
0.794007 0.083850 0.096147
0.844150 0.077922 0.093802
0.000000 0.180711 0.149518
0.009445 0.182731 0.151011
0.030136 0.183396 0.151268
0.056112 0.182477 0.149967
0.104061 0.179941 0.148843
0.166225 0.186326 0.120421
0.259324 0.188088 0.125496
0.332295 0.196092 0.138238
0.405476 0.198559 0.135177
0.479621 0.198247 0.128026
0.554115 0.195796 0.119451
0.625899 0.189684 0.110791
0.693142 0.179425 0.103014
0.754330 0.163011 0.098273
0.808924 0.146985 0.094448
0.856949 0.132815 0.090934
0.045507 0.235695 0.148571
0.051146 0.239733 0.150286
0.056819 0.242437 0.149105
0.064949 0.244271 0.144106
0.089057 0.246880 0.129706
0.146498 0.249244 0.078474
0.236890 0.271538 0.011128
0.375997 0.270156 0.016490
0.460115 0.270421 0.018186
0.530625 0.274751 0.019365
0.598237 0.277816 0.019597
0.662585 0.277029 0.018732
0.723621 0.272149 0.064899
0.780273 0.263217 0.085378
0.831021 0.250401 0.091164
0.876175 0.234183 0.090316
0.042001 0.306879 0.138363
0.046627 0.312521 0.137016
0.051038 0.316736 0.131971
0.056098 0.320072 0.121604
0.066003 0.325036 0.094227
0.129028 0.326780 0.053435
0.211170 0.330986 0.000000
0.329697 0.358187 0.014659
0.474391 0.360532 0.020885
0.579752 0.354083 0.023115
0.652461 0.353587 0.024417
0.714892 0.354382 0.025355
0.770556 0.352925 0.025466
0.820320 0.347795 0.024379
0.864247 0.339039 0.022868
0.903764 0.327573 0.021309
0.026334 0.387170 0.108467
0.029559 0.394541 0.097920
0.034171 0.399415 0.089579
0.040730 0.401877 0.086263
0.049643 0.402997 0.086188
0.122783 0.405767 0.042151
0.207737 0.409832 0.000000
0.288565 0.416497 0.000518
