app/filters/OXFORD.cube
LUT_3D_SIZE 6
0.045903 0.070853 0.077012
0.086063 0.071413 0.077544
0.225504 0.073294 0.079334
0.436257 0.069412 0.075642
0.653812 0.057541 0.064179
0.829622 0.035378 0.041911
0.044224 0.131634 0.075044
0.064977 0.132476 0.061420
0.253181 0.131824 0.066471
0.465593 0.126121 0.076399
0.687698 0.102470 0.061953
0.857806 0.073716 0.034832
0.030101 0.309199 0.057444
0.043766 0.311698 0.055306
0.207485 0.320945 0.000344
0.568935 0.346640 0.022595
0.770377 0.351764 0.025588
0.909822 0.330642 0.021888
0.000000 0.549770 0.000000
0.000000 0.554115 0.000000
0.185861 0.565069 0.000000
0.440300 0.576885 0.002602
0.826921 0.604277 0.035508
0.993435 0.549492 0.038196
0.000000 0.771219 0.000000
0.000000 0.776138 0.000000
0.043297 0.779659 0.000000
0.360044 0.788701 0.000000
0.579613 0.798354 0.000353
0.894459 0.819084 0.039827
0.000000 0.919325 0.000000
0.000000 0.923635 0.000000
0.000000 0.925733 0.000000
0.154955 0.928471 0.000000
0.452392 0.935716 0.000000
0.656605 0.945566 0.000000
0.029681 0.065989 0.195697
0.075184 0.070741 0.163049
0.214777 0.069681 0.158820
0.426431 0.066893 0.159685
0.652273 0.057149 0.136881
0.831629 0.034843 0.101957
0.000000 0.137326 0.157958
0.042225 0.140812 0.156556
0.227291 0.125664 0.151494
0.454853 0.115311 0.140117
0.673929 0.098865 0.106467
0.844150 0.077922 0.093802
0.042001 0.306879 0.138363
0.056098 0.320072 0.121604
0.211170 0.330986 0.000000
0.579752 0.354083 0.023115
0.770556 0.352925 0.025466
0.903764 0.327573 0.021309
0.000000 0.556676 0.055290
0.000000 0.567025 0.049798
0.194340 0.574984 0.000000
0.454456 0.590181 0.002794
0.827239 0.616378 0.035806
0.993612 0.555910 0.038466
0.000000 0.775838 0.000000
0.000000 0.779059 0.000000
0.039675 0.782870 0.000000
0.356084 0.794474 0.000000
0.571812 0.805052 0.000000
0.885586 0.827346 0.039086
0.000000 0.921491 0.000000
0.000000 0.921117 0.000000
0.000000 0.922324 0.000000
0.157171 0.929221 0.000000
0.449013 0.938578 0.000000
0.651359 0.948691 0.000000
0.000000 0.008859 0.455796
0.000000 0.006662 0.466439
0.223957 0.070243 0.382036
0.413949 0.068523 0.374090
0.641775 0.058612 0.389981
0.821864 0.040338 0.375958
0.000000 0.139180 0.416224
0.000000 0.125721 0.429783
0.211435 0.117310 0.394600
0.425979 0.106849 0.377747
0.654629 0.091057 0.387806
0.830606 0.074751 0.369376
0.000000 0.352074 0.403315
0.000000 0.358030 0.408223
0.000000 0.354462 0.384891
0.430376 0.303431 0.366697
0.670153 0.290414 0.353451
0.854186 0.273885 0.335939
0.000000 0.550269 0.373841
0.000000 0.563151 0.379527
0.132139 0.563865 0.365736
0.399730 0.570401 0.264281
0.799749 0.602195 0.036038
0.965556 0.556047 0.169338
0.034088 0.765522 0.364738
0.048604 0.774634 0.357325
0.042958 0.778354 0.264874
0.315856 0.791985 0.000000
0.560714 0.808802 0.000000
0.880236 0.834296 0.038779
0.000000 0.918728 0.215127
0.000000 0.922076 0.144996
0.000000 0.922215 0.080571
0.147141 0.925048 0.000000
0.443190 0.939726 0.000000
0.642601 0.951995 0.000000
0.000000 0.016406 0.738950
0.000000 0.015496 0.744451
0.198886 0.001252 0.735953
0.418225 0.068729 0.617535
0.625477 0.066488 0.601381
0.808797 0.056278 0.589987
0.000000 0.021102 0.737569
0.000000 0.018702 0.737294
0.138494 0.003642 0.746679
0.413946 0.098703 0.628355
0.628937 0.092164 0.604263
0.814721 0.084798 0.592013
0.000000 0.449293 0.533297
0.000000 0.446155 0.540349
0.000000 0.414520 0.568376
0.345553 0.254456 0.698213
0.627268 0.267794 0.606019
0.823013 0.244640 0.589123
0.000000 0.604064 0.669543
0.000000 0.611608 0.676829
0.000000 0.611364 0.675472
0.000000 0.604493 0.650275
0.622720 0.538787 0.617631
0.828623 0.530947 0.592296
0.000000 0.783799 0.605069
0.000000 0.791153 0.610849
0.000000 0.791124 0.605578
0.000000 0.786627 0.593474
0.609410 0.771452 0.594998
0.899355 0.817679 0.559450
0.000000 0.911067 0.558772
0.000000 0.914671 0.560553
0.000000 0.915946 0.557207
0.199877 0.917500 0.554825
0.516033 0.923098 0.537199
0.696025 0.936108 0.432125
0.000000 0.022344 0.969678
0.000000 0.021704 0.970311
0.000000 0.014340 0.977072
0.389846 0.000000 0.866724
0.583318 0.066672 0.788493
0.771679 0.064177 0.772004
0.000000 0.023612 0.977282
0.000000 0.022774 0.972488
0.000000 0.017037 0.976038
0.377054 0.000000 0.880471
0.578306 0.092329 0.795684
0.772325 0.090551 0.774873
0.000000 0.376052 0.840013
0.000000 0.359481 0.848836
0.000000 0.309385 0.873008
0.193522 0.120987 0.974487
0.546679 0.231871 0.814063
0.764371 0.236775 0.778150
0.000000 0.672579 0.667402
0.000000 0.672596 0.667482
0.000000 0.664342 0.662285
0.000000 0.645269 0.661247
0.296263 0.519896 0.932526
0.753143 0.510130 0.789949
0.000000 0.798368 0.872582
0.000000 0.800906 0.875609
0.000000 0.799213 0.873010
0.000000 0.795941 0.868490
0.000000 0.792183 0.844122
0.672768 0.768337 0.851409
0.000000 0.946989 0.790902
0.000000 0.946531 0.791875
0.000000 0.945452 0.789746
0.000000 0.946516 0.789916
0.000000 0.944175 0.792643
0.687604 0.928280 0.782322
0.000000 0.026690 1.162923
0.000000 0.026035 1.160780
0.000000 0.022020 1.169342
0.313258 0.000881 1.126708
0.549075 0.065849 0.958636
0.720795 0.064571 0.890948
0.000000 0.027990 1.173832
0.000000 0.027238 1.170802
0.000000 0.023907 1.174851
0.283023 0.001744 1.145622
0.536483 0.091750 0.975867
0.721432 0.090789 0.901542
0.000000 0.249654 1.095233
0.000000 0.224584 1.102463
0.000000 0.161529 1.119308
0.000000 0.022939 1.177572
0.500153 0.185089 1.010991
0.716049 0.227381 0.928288
0.000000 0.650278 0.793596
0.000000 0.646134 0.795331
0.000000 0.636682 0.799458
0.000000 0.631278 0.804010
0.066327 0.525573 1.099238
0.718129 0.501631 0.970363
0.000000 0.814021 0.871612
0.000000 0.813547 0.868757
0.000000 0.812019 0.859501
0.000000 0.812925 0.852888
0.000000 0.819406 0.835869
0.537713 0.774646 1.065350
0.000000 0.938921 1.021760
0.000000 0.938126 1.022819
0.000000 0.937079 1.021158
0.000000 0.939867 1.019300
0.000000 0.946139 1.016227
0.345868 0.927519 1.035576
