app/filters/Sage.cube
LUT_3D_SIZE 6
0.000000 0.000940 0.013944
0.124427 0.000952 0.013697
0.337135 0.000972 0.013711
0.537537 0.000989 0.013724
0.738967 0.001005 0.013737
0.987930 0.001025 0.013752
0.000000 0.119333 0.013688
0.113390 0.114887 0.013688
0.366948 0.000940 0.013713
0.579819 0.000992 0.013726
0.787635 0.001009 0.013740
1.028079 0.001027 0.013755
0.000000 0.302710 0.013688
0.000000 0.307319 0.013688
0.377360 0.322033 0.013808
0.620515 0.269443 0.013719
0.834460 0.204077 0.013735
1.069858 0.064355 0.013755
0.000000 0.481529 0.013688
0.000000 0.488728 0.013688
0.271162 0.481322 0.013688
0.613739 0.513150 0.013797
0.845723 0.483873 0.013724
1.056382 0.469295 0.013738
0.000000 0.669919 0.013688
0.000000 0.678625 0.013688
0.098574 0.680844 0.013688
0.425713 0.656132 0.013688
0.744866 0.680674 0.013688
1.028209 0.716316 0.013727
0.000000 0.897573 0.013688
0.000000 0.904385 0.013688
0.000000 0.906453 0.013688
0.222518 0.902133 0.013688
0.554508 0.869991 0.013688
0.899506 0.865378 0.013688
0.000000 0.000940 0.184475
0.111129 0.000940 0.156014
0.354691 0.000940 0.160164
0.557369 0.000940 0.075382
0.757417 0.000940 0.013738
0.997077 0.000940 0.013753
0.000000 0.123425 0.142746
0.094795 0.125090 0.143380
0.360423 0.069155 0.056043
0.569733 0.000940 0.013723
0.766339 0.001003 0.013738
1.016896 0.001027 0.013754
0.000000 0.302875 0.028138
0.000000 0.322939 0.013688
0.392656 0.338562 0.013962
0.631971 0.281309 0.013719
0.831756 0.208627 0.013735
1.058810 0.125549 0.013751
0.000000 0.490198 0.013688
0.000000 0.499731 0.013688
0.286475 0.493076 0.013688
0.611659 0.529193 0.014285
0.843347 0.497230 0.013724
1.053876 0.479863 0.013737
0.000000 0.675620 0.013688
0.000000 0.680585 0.013688
0.103683 0.686578 0.013688
0.421543 0.666610 0.013688
0.737520 0.680557 0.013688
1.025187 0.728237 0.013726
0.000000 0.898492 0.013688
0.000000 0.897286 0.013688
0.000000 0.902926 0.013688
0.217516 0.906392 0.013688
0.548431 0.876978 0.013688
0.885106 0.867655 0.013688
0.000000 0.000940 0.392879
0.075950 0.000940 0.408900
0.310592 0.000940 0.347257
0.544684 0.000940 0.332433
0.757288 0.000940 0.293886
0.993892 0.000940 0.233299
0.000000 0.121404 0.363158
0.000000 0.121363 0.377729
0.310740 0.085870 0.346788
0.548406 0.000976 0.313189
0.760258 0.001003 0.253509
1.002510 0.001019 0.190718
0.000000 0.322801 0.334386
0.000000 0.336269 0.343136
0.306022 0.329257 0.337860
0.568514 0.298587 0.292020
0.790856 0.232318 0.196163
1.028406 0.138544 0.013688
0.000000 0.500923 0.280040
0.000000 0.520523 0.280660
0.222022 0.497471 0.160091
0.573170 0.527896 0.192543
0.831025 0.507072 0.013688
1.043501 0.485106 0.013688
0.000000 0.672307 0.131227
0.000000 0.682466 0.089143
0.059473 0.683622 0.013688
0.418581 0.670472 0.013688
0.728620 0.679443 0.013688
1.018712 0.743653 0.013688
0.000000 0.902916 0.013688
0.000000 0.902045 0.013688
0.000000 0.903301 0.013688
0.183215 0.915611 0.013688
0.533592 0.889888 0.013688
0.860559 0.870282 0.013688
0.000000 0.000940 0.579269
0.000000 0.000940 0.599793
0.271402 0.000940 0.573919
0.499213 0.000940 0.521093
0.711749 0.000940 0.513820
0.973181 0.000940 0.526212
0.000000 0.080023 0.562372
0.000000 0.087656 0.560929
0.247109 0.008408 0.579619
0.492391 0.000940 0.513352
0.714188 0.000988 0.503311
0.984127 0.001005 0.512133
0.000000 0.331169 0.536840
0.000000 0.336456 0.542419
0.118519 0.321448 0.558375
0.494186 0.289636 0.520823
0.735960 0.233334 0.509995
0.996844 0.122350 0.506403
0.000000 0.508603 0.510692
0.000000 0.524196 0.525138
0.128129 0.525180 0.522109
0.489168 0.516271 0.521440
0.759799 0.490425 0.487852
1.007316 0.452418 0.442735
0.000000 0.695075 0.494998
0.000000 0.709262 0.507626
0.053797 0.713483 0.500761
0.383661 0.679776 0.399349
0.698446 0.682372 0.373099
1.011758 0.736403 0.400291
0.000000 0.918008 0.411779
0.000000 0.921419 0.409343
0.000000 0.923096 0.383666
0.000000 0.917106 0.013688
0.499617 0.895735 0.013688
0.829821 0.876152 0.013688
0.000000 0.000940 0.772969
0.000000 0.000940 0.778089
0.234921 0.000940 0.803795
0.460195 0.000940 0.709733
0.677555 0.000940 0.691540
0.914618 0.000940 0.718721
0.000000 0.000940 0.774374
0.000000 0.000940 0.763967
0.196821 0.000940 0.792102
0.445959 0.000940 0.717918
0.678629 0.000972 0.689359
0.926898 0.000993 0.717545
0.000000 0.326808 0.748250
0.000000 0.322888 0.748881
0.066544 0.292605 0.760071
0.414686 0.250227 0.764798
0.680790 0.228609 0.699454
0.934560 0.201250 0.721940
0.000000 0.540075 0.723040
0.000000 0.547521 0.731304
0.000000 0.536646 0.718727
0.270566 0.504520 0.750010
0.682200 0.477954 0.706626
0.950471 0.461147 0.720068
0.000000 0.697963 0.692036
0.000000 0.705691 0.701747
0.000000 0.703835 0.697797
0.282932 0.709796 0.702871
0.669416 0.706932 0.709304
0.971699 0.685343 0.684314
0.000000 0.936319 0.697623
0.000000 0.936595 0.697746
0.000000 0.944394 0.698296
0.247328 0.955287 0.693133
0.547281 0.921914 0.601267
0.839993 0.880100 0.477113
0.000000 0.000940 1.010482
0.000000 0.000940 1.008115
0.182426 0.000940 1.047717
0.486326 0.000940 1.008093
0.686114 0.000940 0.887234
0.902917 0.000940 0.886199
0.000000 0.000940 1.017790
0.000000 0.000940 1.013220
0.133679 0.000940 1.039243
0.444498 0.000940 1.032597
0.679982 0.000964 0.890946
0.915905 0.000985 0.891858
0.000000 0.325150 0.990200
0.000000 0.314431 0.984317
0.000000 0.269677 1.000188
0.379652 0.208760 1.050428
0.673988 0.249617 0.908629
0.920334 0.175255 0.902281
0.000000 0.561736 0.955926
0.000000 0.557914 0.954322
0.000000 0.546394 0.948628
0.150642 0.501558 0.998253
0.676615 0.463809 0.987088
0.926838 0.456831 0.913424
0.000000 0.771529 0.926670
0.000000 0.768241 0.924605
0.000000 0.762364 0.915935
0.000000 0.759387 0.911271
0.561679 0.704320 0.995967
0.930566 0.685827 0.916706
0.000000 0.897464 0.881275
0.000000 0.893851 0.878270
0.000000 0.896767 0.879119
0.078253 0.911108 0.887794
0.590015 0.920302 0.893319
0.904614 0.923325 0.914056
