app/filters/Sage.cube
LUT_3D_SIZE 16
0.000000 0.000940 0.013944
0.000000 0.000940 0.013688
0.051471 0.000940 0.013691
0.124427 0.000952 0.013697
0.196150 0.000960 0.013701
0.267152 0.000966 0.013706
0.337135 0.000972 0.013711
0.405280 0.000978 0.013715
0.472276 0.000984 0.013720
0.537537 0.000989 0.013724
0.602559 0.000994 0.013728
0.669406 0.001000 0.013733
0.738967 0.001005 0.013737
0.815486 0.001011 0.013742
0.900479 0.001018 0.013747
0.987930 0.001025 0.013752
0.000000 0.000940 0.013688
0.000000 0.000940 0.013688
0.050203 0.000940 0.013691
0.126099 0.000940 0.013697
0.202888 0.000940 0.013702
0.275945 0.000967 0.013707
0.346678 0.000972 0.013711
0.416311 0.000979 0.013716
0.485243 0.000985 0.013721
0.553020 0.000990 0.013725
0.619180 0.000996 0.013729
0.685486 0.001001 0.013734
0.756141 0.001007 0.013738
0.832785 0.001013 0.013743
0.917354 0.001019 0.013748
0.999947 0.001025 0.013753
0.000123 0.056645 0.013688
0.000000 0.057077 0.013688
0.033784 0.052362 0.013688
0.129564 0.035835 0.013696
0.207427 0.000940 0.013702
0.282972 0.000967 0.013708
0.357193 0.000976 0.013712
0.428133 0.000976 0.013717
0.497160 0.000988 0.013722
0.565616 0.000992 0.013725
0.633227 0.000997 0.013730
0.700289 0.001002 0.013735
0.770313 0.001008 0.013739
0.847488 0.001014 0.013744
0.931891 0.001021 0.013749
1.009077 0.001026 0.013753
0.000000 0.119333 0.013688
0.000000 0.120539 0.013688
0.000000 0.120530 0.013688
0.113390 0.114887 0.013688
0.215369 0.105969 0.013699
0.293257 0.079807 0.013705
0.366948 0.000940 0.013713
0.439622 0.000940 0.013718
0.510493 0.000940 0.013723
0.579819 0.000992 0.013726
0.647882 0.001003 0.013731
0.716154 0.001003 0.013735
0.787635 0.001009 0.013740
0.866028 0.001016 0.013745
0.948908 0.001022 0.013750
1.028079 0.001027 0.013755
0.000000 0.181420 0.013688
0.000000 0.182913 0.013688
0.000000 0.181597 0.013688
0.056075 0.179228 0.013688
0.200294 0.186207 0.013688
0.303368 0.173249 0.013702
0.379907 0.151803 0.013708
0.451522 0.123883 0.013713
0.522980 0.081007 0.013720
0.593883 0.000940 0.013728
0.663289 0.000940 0.013732
0.732984 0.000940 0.013736
0.805303 0.001023 0.013741
0.885118 0.001014 0.013746
0.967048 0.001023 0.013751
1.046664 0.001023 0.013756
0.000000 0.242244 0.013688
0.000000 0.244480 0.013688
0.000000 0.244397 0.013688
0.011581 0.245376 0.013688
0.146422 0.235701 0.013688
0.290939 0.255588 0.013955
0.391650 0.239630 0.013705
0.465777 0.220505 0.013711
0.536741 0.198796 0.013716
0.607997 0.173830 0.013722
0.677998 0.141606 0.013727
0.748227 0.089607 0.013734
0.821313 0.000940 0.013742
0.901142 0.000940 0.013747
0.979708 0.000940 0.013752
1.062369 0.000940 0.013757
0.000000 0.302710 0.013688
0.000000 0.305363 0.013688
0.000000 0.305818 0.013688
0.000000 0.307319 0.013688
0.114794 0.303593 0.013688
0.245226 0.290378 0.013688
0.377360 0.322033 0.013808
0.477535 0.305478 0.013708
0.550231 0.287883 0.013713
0.620515 0.269443 0.013719
0.690707 0.249972 0.013724
0.760799 0.228442 0.013729
0.834460 0.204077 0.013735
0.914583 0.174669 0.013741
0.986956 0.139909 0.013747
1.069858 0.064355 0.013755
0.000000 0.362538 0.013688
0.000000 0.365254 0.013688
0.000000 0.366006 0.013688
0.000000 0.366650 0.013688
0.087860 0.367942 0.013688
0.211835 0.358884 0.013688
0.341152 0.349214 0.013688
0.462130 0.385973 0.013719
0.560792 0.371389 0.013711
0.633210 0.355488 0.013716
0.702036 0.339184 0.013721
0.772541 0.323524 0.013726
0.845368 0.308197 0.013732
0.920659 0.294188 0.013736
0.985471 0.284186 0.013741
1.064971 0.265792 0.013746
0.000000 0.422231 0.013688
0.000000 0.424251 0.013688
0.000000 0.426568 0.013688
0.000000 0.426995 0.013688
0.057389 0.431357 0.013688
0.187720 0.425246 0.013688
0.299456 0.413080 0.013688
0.430162 0.415416 0.013688
0.542602 0.449813 0.013715
0.639872 0.437482 0.013713
0.712655 0.422885 0.013719
0.780767 0.409871 0.013723
0.849132 0.398929 0.013728
0.919268 0.390632 0.013733
0.982274 0.386083 0.013737
1.061080 0.376004 0.013742
0.000000 0.481529 0.013688
0.000000 0.484307 0.013688
0.000000 0.487697 0.013688
0.000000 0.488728 0.013688
0.003539 0.494242 0.013688
0.153291 0.490327 0.013688
0.271162 0.481322 0.013688
0.377610 0.467790 0.013688
0.507900 0.480722 0.013688
0.613739 0.513150 0.013797
0.706907 0.503330 0.013715
0.779578 0.492407 0.013720
0.845723 0.483873 0.013724
0.914949 0.478504 0.013730
0.977843 0.476682 0.013734
1.056382 0.469295 0.013738
0.000000 0.542050 0.013688
0.000000 0.546077 0.013688
0.000000 0.549507 0.013688
0.000000 0.550815 0.013688
0.000000 0.553447 0.013688
0.104226 0.553994 0.013688
0.240206 0.546678 0.013688
0.339971 0.537232 0.013688
0.441279 0.523509 0.013688
0.562625 0.534981 0.013688
0.660386 0.574793 0.014313
0.753842 0.570761 0.013716
0.835105 0.564490 0.013721
0.909205 0.560373 0.013726
0.972559 0.560925 0.013730
1.051469 0.555235 0.013735
0.000000 0.605374 0.013688
0.000000 0.609224 0.013688
0.000000 0.612793 0.013688
0.000000 0.613990 0.013688
0.000000 0.613622 0.013688
0.039552 0.617633 0.013688
0.185438 0.613034 0.013688
0.297866 0.604220 0.013688
0.386139 0.595454 0.013688
0.478267 0.582819 0.013688
0.593956 0.582199 0.013688
0.700823 0.629643 0.013688
0.799472 0.638793 0.013716
0.892995 0.638848 0.013722
0.964561 0.640490 0.013726
1.044253 0.637512 0.013731
0.000000 0.669919 0.013688
0.000000 0.673791 0.013688
0.000000 0.676818 0.013688
0.000000 0.678625 0.013688
0.000000 0.678674 0.013688
0.000000 0.680937 0.013688
0.098574 0.680844 0.013688
0.233131 0.674507 0.013688
0.337192 0.665639 0.013688
0.425713 0.656132 0.013688
0.516502 0.643802 0.013688
0.628130 0.635756 0.013688
0.744866 0.680674 0.013688
0.849269 0.709293 0.013940
0.943819 0.717169 0.013723
1.028209 0.716316 0.013727
0.000000 0.737578 0.013688
0.000000 0.741707 0.013688
0.000000 0.745184 0.013688
0.000000 0.748252 0.013688
0.000000 0.749046 0.013688
0.000000 0.748559 0.013688
0.000000 0.749736 0.013688
0.140197 0.748688 0.013688
0.277803 0.740536 0.013688
0.380318 0.730724 0.013688
0.469422 0.721279 0.013688
0.559750 0.709527 0.013688
0.667030 0.696934 0.013688
0.793917 0.732890 0.013688
0.905775 0.781253 0.014543
1.002645 0.791562 0.014126
0.000000 0.809177 0.013688
0.000000 0.812720 0.013688
0.000000 0.816366 0.013688
0.000000 0.820410 0.013688
0.000000 0.822389 0.013688
0.000000 0.822559 0.013688
0.000000 0.821037 0.013688
0.000000 0.825576 0.013688
0.195120 0.818637 0.013688
0.325703 0.808844 0.013688
0.426805 0.799269 0.013688
0.518149 0.788979 0.013688
0.606264 0.778532 0.013688
0.712347 0.763153 0.013688
0.848333 0.789597 0.013688
0.959214 0.841422 0.013688
0.000000 0.897573 0.013688
0.000000 0.900459 0.013688
0.000000 0.902752 0.013688
0.000000 0.904385 0.013688
0.000000 0.905827 0.013688
0.000000 0.907176 0.013688
0.000000 0.906453 0.013688
0.000000 0.904659 0.013688
0.000000 0.912365 0.013688
0.222518 0.902133 0.013688
0.353451 0.891844 0.013688
0.459543 0.881352 0.013688
0.554508 0.869991 0.013688
0.642796 0.859582 0.013688
0.748226 0.847824 0.013688
0.899506 0.865378 0.013688
0.000000 0.000940 0.042679
0.006371 0.000940 0.035589
0.129115 0.000940 0.140299
0.169830 0.000940 0.139444
0.227986 0.000940 0.135652
0.293030 0.000940 0.129722
0.360365 0.000940 0.120585
0.428076 0.000940 0.107691
0.494564 0.000940 0.088870
0.558898 0.000940 0.049841
0.621847 0.000940 0.013730
0.686546 0.000940 0.013734
0.754738 0.000940 0.013738
0.829708 0.000940 0.013743
0.912579 0.000940 0.013747
0.996135 0.000940 0.013753
0.000000 0.000940 0.033375
0.000000 0.000940 0.034025
0.050205 0.000940 0.027390
0.127627 0.000940 0.013696
0.203774 0.000940 0.013702
0.277154 0.000967 0.013707
0.348271 0.000972 0.013711
0.417005 0.000979 0.013716
0.482730 0.000984 0.013721
0.547076 0.000990 0.013724
0.610968 0.000995 0.013729
0.676768 0.001000 0.013733
0.746106 0.001006 0.013737
0.822112 0.001012 0.013742
0.910334 0.001019 0.013747
0.998495 0.001025 0.013753
0.000072 0.051296 0.015340
0.000130 0.056329 0.013688
0.034105 0.054213 0.013688
0.132275 0.036754 0.013696
0.212065 0.000940 0.013703
0.288356 0.000967 0.013708
0.361383 0.000976 0.013712
0.430037 0.000988 0.013717
0.495671 0.000988 0.013721
0.560723 0.000992 0.013725
0.625619 0.000996 0.013730
0.691335 0.001002 0.013734
0.760087 0.001007 0.013738
0.836490 0.001013 0.013743
0.924348 0.001020 0.013748
1.005590 0.001026 0.013753
0.000000 0.117078 0.013688
0.000000 0.123928 0.013688
0.000000 0.125231 0.013688
0.123112 0.121742 0.013688
0.225315 0.108344 0.013700
0.302887 0.079730 0.013705
0.377089 0.000940 0.013713
0.447156 0.000940 0.013718
0.513558 0.000940 0.013723
0.579105 0.000992 0.013726
0.644164 0.001003 0.013731
0.710412 0.001003 0.013735
0.778919 0.001009 0.013739
0.854769 0.001014 0.013744
0.940758 0.001021 0.013749
1.024019 0.001027 0.013754
0.000000 0.181874 0.013688
0.000000 0.188347 0.013688
0.000000 0.189020 0.013688
0.064819 0.184815 0.013688
0.218903 0.195407 0.013906
0.319721 0.177865 0.013703
0.395544 0.154676 0.013709
0.465096 0.124681 0.013714
0.531975 0.079543 0.013720
0.598099 0.000940 0.013728
0.664200 0.000940 0.013732
0.731078 0.000940 0.013736
0.800586 0.001023 0.013741
0.877411 0.001023 0.013746
0.961334 0.001023 0.013750
1.042161 0.001023 0.013755
0.000000 0.245399 0.013688
0.000000 0.251410 0.013688
0.000000 0.252257 0.013688
0.027869 0.251827 0.013688
0.165206 0.241668 0.013688
0.314537 0.264659 0.013700
0.413777 0.246277 0.013706
0.484122 0.224755 0.013711
0.550347 0.200796 0.013717
0.616366 0.173657 0.013722
0.682557 0.139273 0.013728
0.750042 0.083692 0.013734
0.820030 0.000940 0.013742
0.898382 0.000940 0.013747
0.977456 0.000940 0.013751
1.059063 0.000940 0.013756
0.000000 0.307226 0.013688
0.000000 0.313438 0.013688
0.000000 0.314594 0.013688
0.000000 0.316331 0.013688
0.137601 0.311203 0.013688
0.275161 0.298212 0.013688
0.408063 0.332007 0.013702
0.501717 0.313845 0.013710
0.568524 0.293837 0.013714
0.633523 0.273058 0.013720
0.699019 0.251861 0.013724
0.766401 0.229069 0.013730
0.837881 0.203244 0.013735
0.915559 0.170998 0.013741
0.987027 0.136852 0.013747
1.069897 0.068149 0.013754
0.000000 0.367291 0.013688
0.000000 0.373718 0.013688
0.000000 0.374371 0.013688
0.000000 0.375935 0.013688
0.109601 0.376640 0.013688
0.237255 0.366342 0.013688
0.373608 0.364725 0.013688
0.490194 0.396290 0.013705
0.582033 0.380164 0.013712
0.648614 0.361744 0.013717
0.713350 0.343704 0.013722
0.780830 0.326558 0.013726
0.849524 0.310575 0.013732
0.920718 0.295671 0.013736
0.985312 0.284414 0.013741
1.064959 0.266983 0.013746
0.000000 0.426373 0.013688
0.000000 0.432403 0.013688
0.000000 0.433542 0.013688
0.000000 0.434861 0.013688
0.076243 0.439114 0.013688
0.207901 0.433184 0.013688
0.320809 0.420651 0.013688
0.453960 0.431071 0.013688
0.563703 0.459520 0.013708
0.654320 0.445480 0.013714
0.720961 0.429780 0.013719
0.784547 0.415475 0.013723
0.850018 0.403533 0.013728
0.918986 0.393973 0.013733
0.982087 0.388115 0.013736
1.060813 0.377463 0.013742
0.000000 0.485342 0.013688
0.000000 0.491455 0.013688
0.000000 0.493990 0.013688
0.000000 0.495230 0.013688
0.027504 0.500649 0.013688
0.169628 0.497153 0.013688
0.285008 0.488376 0.013688
0.392034 0.475054 0.013688
0.516867 0.489088 0.013688
0.615664 0.521973 0.014027
0.705820 0.511667 0.013715
0.778704 0.499962 0.013720
0.845056 0.489767 0.013724
0.914615 0.482450 0.013729
0.977442 0.479048 0.013733
1.056023 0.471623 0.013738
0.000000 0.544570 0.013688
0.000000 0.552077 0.013688
0.000000 0.555151 0.013688
0.000000 0.556212 0.013688
0.000000 0.559476 0.013688
0.116110 0.559536 0.013688
0.247957 0.552650 0.013688
0.343065 0.544105 0.013688
0.437013 0.531362 0.013688
0.552681 0.535193 0.013688
0.654557 0.579715 0.013858
0.749400 0.577996 0.013715
0.833686 0.570486 0.013721
0.908868 0.564626 0.013725
0.972531 0.563315 0.013730
1.051102 0.557902 0.013735
0.000000 0.605727 0.013688
0.000000 0.614323 0.013688
0.000000 0.617214 0.013688
0.000000 0.618461 0.013688
0.000000 0.618443 0.013688
0.040977 0.622645 0.013688
0.183095 0.618947 0.013688
0.292897 0.610982 0.013688
0.380841 0.602231 0.013688
0.471887 0.590258 0.013688
0.584490 0.584394 0.013688
0.696088 0.631090 0.013688
0.794841 0.644438 0.013715
0.891116 0.643072 0.013722
0.963926 0.644053 0.013726
1.043508 0.640715 0.013731
0.000000 0.669577 0.013688
0.000000 0.677150 0.013688
0.000000 0.680052 0.013688
0.000000 0.682356 0.013688
0.000000 0.682882 0.013688
0.000000 0.685207 0.013688
0.090935 0.685901 0.013688
0.227824 0.679757 0.013688
0.333690 0.670594 0.013688
0.422485 0.661578 0.013688
0.512545 0.649437 0.013688
0.621103 0.639236 0.013688
0.741553 0.680685 0.013688
0.847496 0.712823 0.014115
0.943386 0.719766 0.013722
1.027686 0.719987 0.013727
0.000000 0.737714 0.013688
0.000000 0.742252 0.013688
0.000000 0.745966 0.013688
0.000000 0.748702 0.013688
0.000000 0.750714 0.013688
0.000000 0.750973 0.013688
0.000000 0.753036 0.013688
0.135848 0.752447 0.013688
0.274295 0.744632 0.013688
0.377482 0.735335 0.013688
0.466845 0.725732 0.013688
0.557089 0.713758 0.013688
0.662651 0.699927 0.013688
0.790834 0.732551 0.013688
0.904472 0.783173 0.014502
1.001684 0.794276 0.014247
0.000000 0.809248 0.013688
0.000000 0.811468 0.013688
0.000000 0.814503 0.013688
0.000000 0.817941 0.013688
0.000000 0.820490 0.013688
0.000000 0.821349 0.013688
0.000000 0.821393 0.013688
0.000000 0.826775 0.013688
0.192137 0.820564 0.013688
0.322992 0.811280 0.013688
0.424009 0.802214 0.013688
0.515680 0.791906 0.013688
0.604008 0.780733 0.013688
0.708240 0.765852 0.013688
0.845127 0.789104 0.013688
0.956633 0.842955 0.013688
0.000000 0.897090 0.013688
0.000000 0.898099 0.013688
0.000000 0.900162 0.013688
0.000000 0.902301 0.013688
0.000000 0.903911 0.013688
0.000000 0.905316 0.013688
0.000000 0.905249 0.013688
0.000000 0.904713 0.013688
0.000000 0.912868 0.013688
0.220226 0.903639 0.013688
0.350859 0.894265 0.013688
0.457831 0.882742 0.013688
0.552517 0.872671 0.013688
0.640050 0.862213 0.013688
0.744760 0.849300 0.013688
0.895862 0.866367 0.013688
0.000000 0.000940 0.105948
0.003520 0.000940 0.108214
0.048842 0.000940 0.085508
0.161613 0.000940 0.144961
0.224874 0.000940 0.143796
0.290418 0.000940 0.135348
0.357846 0.000940 0.123213
0.426395 0.000940 0.108109
0.493274 0.000940 0.089548
0.557972 0.000940 0.051942
0.621865 0.000940 0.013730
0.686878 0.000940 0.013734
0.755751 0.000940 0.013738
0.831649 0.000940 0.013743
0.915059 0.000940 0.013748
0.996413 0.000940 0.013753
0.000000 0.004429 0.091058
0.000000 0.000940 0.101227
0.043008 0.000940 0.085621
0.122651 0.000940 0.076815
0.199693 0.000940 0.047955
0.273044 0.000967 0.013688
0.344946 0.000972 0.013714
0.414452 0.000979 0.013716
0.481087 0.000984 0.013720
0.546605 0.000990 0.013724
0.611432 0.000995 0.013729
0.677290 0.001000 0.013733
0.747043 0.001006 0.013737
0.823597 0.001012 0.013742
0.911323 0.001019 0.013747
0.997194 0.001025 0.013753
0.000000 0.053802 0.076803
0.000000 0.056566 0.079062
0.029820 0.054669 0.081004
0.120604 0.041817 0.071331
0.204569 0.000940 0.026474
0.282407 0.000940 0.013688
0.355740 0.000976 0.013711
0.425629 0.000988 0.013717
0.492241 0.000988 0.013721
0.557139 0.000992 0.013725
0.620731 0.000996 0.013729
0.685105 0.001001 0.013734
0.753470 0.001007 0.013738
0.830199 0.001013 0.013743
0.919775 0.001020 0.013748
1.004112 0.001026 0.013753
0.000000 0.117047 0.058755
0.000000 0.121413 0.058680
0.000000 0.123645 0.046913
0.115509 0.118193 0.013688
0.218216 0.111368 0.013688
0.298960 0.087039 0.013705
0.373184 0.038258 0.013711
0.443847 0.000940 0.013718
0.510847 0.000940 0.013723
0.575419 0.000996 0.013726
0.638895 0.001003 0.013730
0.703221 0.001003 0.013735
0.771077 0.001009 0.013739
0.847637 0.001014 0.013744
0.935890 0.001021 0.013749
1.020898 0.001027 0.013754
0.000000 0.176946 0.013688
0.000000 0.185720 0.013688
0.000000 0.191266 0.013688
0.053657 0.188664 0.013688
0.216006 0.197523 0.013847
0.318875 0.181743 0.013702
0.393908 0.158660 0.013709
0.464428 0.130395 0.013714
0.531850 0.090268 0.013720
0.596639 0.000940 0.013728
0.660872 0.000940 0.013732
0.725775 0.000940 0.013736
0.793545 0.001023 0.013740
0.870391 0.001023 0.013745
0.955941 0.001023 0.013750
1.038164 0.001023 0.013755
0.000000 0.242621 0.013688
0.000000 0.252351 0.013688
0.000000 0.256265 0.013688
0.008117 0.257329 0.013688
0.161510 0.245864 0.013688
0.315072 0.268780 0.013742
0.414661 0.249736 0.013706
0.486083 0.228165 0.013711
0.552998 0.204762 0.013717
0.618079 0.177823 0.013722
0.682321 0.143782 0.013727
0.747487 0.089902 0.013734
0.816220 0.000940 0.013742
0.893179 0.000940 0.013747
0.973230 0.000940 0.013751
1.054943 0.000940 0.013756
0.000000 0.307667 0.013688
0.000000 0.316632 0.013688
0.000000 0.318866 0.013688
0.000000 0.319779 0.013688
0.134644 0.314358 0.013688
0.273889 0.301089 0.013688
0.408642 0.335343 0.013702
0.505093 0.317499 0.013710
0.572689 0.297318 0.013714
0.637465 0.276152 0.013720
0.701387 0.254266 0.013724
0.767127 0.230654 0.013730
0.836462 0.203996 0.013735
0.912742 0.172045 0.013741
0.985822 0.139526 0.013747
1.066764 0.095392 0.013753
0.000000 0.369427 0.013688
0.000000 0.377448 0.013688
0.000000 0.379262 0.013688
0.000000 0.378883 0.013688
0.113229 0.378987 0.013688
0.239821 0.369391 0.013688
0.378046 0.368549 0.013688
0.496145 0.400619 0.013706
0.588348 0.384526 0.013712
0.654320 0.365652 0.013717
0.718119 0.346775 0.013722
0.782547 0.329093 0.013726
0.848914 0.312659 0.013732
0.920373 0.297139 0.013736
0.985143 0.286513 0.013741
1.064961 0.272609 0.013746
0.000000 0.429222 0.013688
0.000000 0.436132 0.013688
0.000000 0.437881 0.013688
0.000000 0.437690 0.013688
0.083966 0.441786 0.013688
0.213707 0.436331 0.013688
0.326631 0.424081 0.013688
0.461093 0.436603 0.013688
0.567753 0.464442 0.013708
0.656073 0.450671 0.013714
0.722635 0.434535 0.013719
0.785049 0.419785 0.013723
0.849328 0.406992 0.013728
0.918166 0.396482 0.013733
0.981966 0.390600 0.013736
1.060084 0.380607 0.013741
0.000000 0.488687 0.013688
0.000000 0.494443 0.013688
0.000000 0.497454 0.013688
0.000000 0.497786 0.013688
0.037397 0.503430 0.013688
0.177253 0.500052 0.013688
0.290270 0.491865 0.013688
0.395276 0.479019 0.013688
0.515745 0.490680 0.013688
0.612407 0.526747 0.014247
0.703189 0.517007 0.013715
0.777335 0.504632 0.013720
0.844224 0.493940 0.013724
0.914005 0.485880 0.013729
0.977332 0.482211 0.013733
1.055262 0.475561 0.013738
0.000000 0.548327 0.013688
0.000000 0.553186 0.013688
0.000000 0.557870 0.013688
0.000000 0.558376 0.013688
0.000000 0.562225 0.013688
0.124155 0.562309 0.013688
0.251995 0.555546 0.013688
0.342602 0.548023 0.013688
0.433532 0.536047 0.013688
0.547627 0.536253 0.013688
0.651726 0.581907 0.013688
0.746692 0.582510 0.013715
0.832511 0.574819 0.013721
0.908321 0.568346 0.013725
0.972221 0.566527 0.013730
1.050206 0.561442 0.013735
0.000000 0.608823 0.013688
0.000000 0.613968 0.013688
0.000000 0.618440 0.013688
0.000000 0.619480 0.013688
0.000000 0.619823 0.013688
0.046253 0.625039 0.013688
0.185241 0.621470 0.013688
0.292250 0.614280 0.013688
0.379614 0.605986 0.013688
0.469568 0.594139 0.013688
0.580038 0.586677 0.013688
0.694251 0.631941 0.013688
0.793235 0.647935 0.013715
0.890171 0.646644 0.013722
0.963021 0.647306 0.013726
1.042612 0.644240 0.013731
0.000000 0.671219 0.013688
0.000000 0.676206 0.013688
0.000000 0.680080 0.013688
0.000000 0.681896 0.013688
0.000000 0.683168 0.013688
0.000000 0.686948 0.013688
0.093363 0.688430 0.013688
0.228044 0.682751 0.013688
0.332649 0.674053 0.013688
0.421198 0.665192 0.013688
0.510787 0.653157 0.013688
0.617524 0.641806 0.013688
0.739615 0.680727 0.013688
0.845811 0.715338 0.014260
0.942514 0.722301 0.013722
1.027268 0.723209 0.013727
0.000000 0.737661 0.013688
0.000000 0.742139 0.013688
0.000000 0.744601 0.013688
0.000000 0.747419 0.013688
0.000000 0.749596 0.013688
0.000000 0.750556 0.013688
0.000000 0.753999 0.013688
0.136718 0.754356 0.013688
0.273713 0.746854 0.013688
0.375941 0.738039 0.013688
0.465383 0.728673 0.013688
0.554262 0.717160 0.013688
0.659095 0.702363 0.013688
0.788031 0.731694 0.013688
0.902707 0.784811 0.014428
1.000329 0.797610 0.014389
0.000000 0.808766 0.013688
0.000000 0.811126 0.013688
0.000000 0.812298 0.013688
0.000000 0.814911 0.013688
0.000000 0.816998 0.013688
0.000000 0.818671 0.013688
0.000000 0.819434 0.013688
0.000000 0.826658 0.013688
0.193836 0.820824 0.013688
0.322458 0.812735 0.013688
0.423355 0.803869 0.013688
0.514204 0.793942 0.013688
0.602047 0.783149 0.013688
0.705296 0.767825 0.013688
0.841904 0.788563 0.013688
0.955086 0.844704 0.013688
0.000000 0.896099 0.013688
0.000000 0.897078 0.013688
0.000000 0.897571 0.013688
0.000000 0.899375 0.013688
0.000000 0.901074 0.013688
0.000000 0.902706 0.013688
0.000000 0.904165 0.013688
0.000000 0.904157 0.013688
0.000000 0.912350 0.013688
0.219402 0.904795 0.013688
0.350677 0.894616 0.013688
0.456190 0.884940 0.013688
0.551287 0.873781 0.013688
0.638765 0.864403 0.013688
0.740493 0.851105 0.013688
0.891455 0.866732 0.013688
0.000000 0.000940 0.184475
0.000000 0.000940 0.189300
0.047083 0.000940 0.172018
0.111129 0.000940 0.156014
0.199464 0.000940 0.164873
0.285466 0.000940 0.174673
0.354691 0.000940 0.160164
0.424015 0.000940 0.139008
0.491736 0.000940 0.113406
0.557369 0.000940 0.075382
0.621936 0.000940 0.013729
0.688061 0.000940 0.013734
0.757417 0.000940 0.013738
0.833551 0.000940 0.013743
0.916486 0.000940 0.013748
0.997077 0.000940 0.013753
0.000000 0.000940 0.171496
0.000000 0.000940 0.176954
0.037899 0.000940 0.180809
0.108371 0.000940 0.155898
0.189130 0.000940 0.145439
0.268920 0.000960 0.124987
0.341736 0.000970 0.090747
0.412149 0.000979 0.013688
0.479713 0.000984 0.013688
0.545542 0.000990 0.013735
0.610959 0.000995 0.013729
0.678375 0.001000 0.013733
0.748811 0.001006 0.013737
0.825441 0.001012 0.013742
0.911788 0.001019 0.013747
0.996558 0.001025 0.013753
0.000000 0.061315 0.156455
0.000000 0.063104 0.158567
0.000000 0.056995 0.169560
0.104316 0.048149 0.153643
0.194027 0.000940 0.143442
0.276188 0.000940 0.121210
0.350501 0.000976 0.084010
0.421437 0.000988 0.013688
0.489520 0.000988 0.013688
0.555283 0.000988 0.013723
0.619636 0.000996 0.013729
0.685215 0.001001 0.013734
0.754400 0.001007 0.013738
0.831196 0.001013 0.013743
0.919382 0.001020 0.013748
1.002800 0.001026 0.013753
0.000000 0.123425 0.142746
0.000000 0.128099 0.146890
0.000000 0.127512 0.147719
0.094795 0.125090 0.143380
0.195250 0.114949 0.134371
0.282215 0.098792 0.106756
0.360423 0.069155 0.056043
0.433828 0.000940 0.013688
0.503158 0.000940 0.013688
0.569733 0.000940 0.013723
0.633917 0.000996 0.013730
0.698962 0.001003 0.013735
0.766339 0.001003 0.013738
0.842372 0.001014 0.013744
0.931412 0.001021 0.013749
1.016896 0.001027 0.013754
0.000000 0.186559 0.126042
0.000000 0.194455 0.125396
0.000000 0.196437 0.125375
0.060067 0.194141 0.111455
0.198006 0.193030 0.095198
0.300827 0.185637 0.013688
0.380035 0.166951 0.013688
0.453265 0.143093 0.013688
0.522966 0.109747 0.013719
0.589514 0.037053 0.013726
0.653753 0.000940 0.013732
0.719025 0.000940 0.013735
0.786626 0.000940 0.013740
0.863148 0.001016 0.013745
0.949116 0.001023 0.013750
1.031462 0.001023 0.013755
0.000000 0.242192 0.086323
0.000000 0.252057 0.082659
0.000000 0.255620 0.073107
0.000000 0.261221 0.013688
0.139534 0.249190 0.013688
0.297869 0.269150 0.013860
0.401725 0.254826 0.013688
0.475601 0.234274 0.013711
0.544336 0.212165 0.013716
0.610966 0.186900 0.013721
0.676114 0.154748 0.013726
0.741863 0.106624 0.013733
0.810207 0.000940 0.013741
0.885844 0.000940 0.013746
0.968001 0.000940 0.013751
1.047671 0.000940 0.013756
0.000000 0.302875 0.028138
0.000000 0.315355 0.013688
0.000000 0.319285 0.013688
0.000000 0.322939 0.013688
0.113444 0.317283 0.013688
0.252484 0.304569 0.013688
0.392656 0.338562 0.013962
0.494172 0.321357 0.013708
0.565006 0.302017 0.013714
0.631971 0.281309 0.013719
0.696892 0.259553 0.013724
0.762572 0.236068 0.013729
0.831756 0.208627 0.013735
0.907297 0.176903 0.013740
0.981195 0.150023 0.013746
1.058810 0.125549 0.013751
0.000000 0.366972 0.013688
0.000000 0.377855 0.013688
0.000000 0.382614 0.013688
0.000000 0.382174 0.013688
0.098684 0.380292 0.013688
0.223744 0.372252 0.013688
0.359257 0.364346 0.013688
0.481779 0.403034 0.013735
